!!!COM: Bach, Johann Sebastian
!!!OPR: Joh. Seb. Bachs vierstimmige Choralgesänge
!!!XEN: Four-part Chorales
!!!OTL: 130. Mitten wir im Leben sind
!!!SCT: BWV 383
!!!SCA: Thematisch-systematisches Verzeichnis der musikalischen Werke Johann Sebastian Bach: Bach-Werke-Verzeichnis (Schmieder)
!!!YOR: Bach Gesellschaft Edition xxxix
!!!ENC: Steven Rasmussen
!!!CDT: 1685/3//-1750/7/28/
!!!OCY: Deutschland
!!!YEC: Copyright (c) 1994, 2000 Center for Computer Assisted Research in the Humanities
!!!YEM: Rights to all derivative editions reserved
!!!YEN: United States of America
**kern	**silbe	**kern	**silbe	**kern	**silbe	**kern	**silbe
*I:[BASSO]	*I:[BASSO]	*I:[TENORE]	*I:[TENORE]	*I:[ALTO]	*I:[ALTO]	*I:[SOPRANO]	*I:[SOPRANO]
*>[A,A,B]	*	*>[A,A,B]	*	*>[A,A,B]	*	*>[A,A,B]	*
*>A	*	*>A	*	*>A	*	*>A	*
*clefF4	*	*clefGv2	*	*clefG2	*	*clefG2	*
*k[]	*	*k[]	*	*k[]	*	*k[]	*
*a:	*	*a:	*	*a:	*	*a:	*
*M4/4	*	*M4/4	*	*M4/4	*	*M4/4	*
=1-	=1-	=1-	=1-	=1-	=1-	=1-	=1-
4E	.	4B	.	4e	.	4g	Mit-wen
8EL	.	4B	.	4e	.	4g	-tensuch'n
8DJ	.	.	.	.	.	.	.
8CL	.	4c	.	4e	.	4a	wirwir,
8BBJ	.	.	.	.	.	.	.
8AAL	.	4B	.	4e	.	4b	imder
8GG#J	.	.	.	.	.	.	.
=2	=2	=2	=2	=2	=2	=2	=2
4.AA	.	4.A	Le-HÃ¼l-	8eL	Le-HÃ¼l-	4cc	Le-HÃ¼l-
.	.	.	.	16f#L	.	.	.
.	.	.	.	16g#JJ	.	.	.
.	.	.	.	4a	.	4cc	-ben-fe
8C	.	8e	.	.	.	.	.
8DL	.	8fL	.	4a	-ben-fe	(2b	sindtu',
8BBJ	.	8dJ	.	.	.	.	.
4E	.	8BL	-ben-fe	4g#	.	.	.
.	.	16eL	.	.	.	.	.
.	.	16dJJ	.	.	.	.	.
=3	=3	=3	=3	=3	=3	=3	=3
2AA;	.	2c;	sindtu',	2e;	sindtu',	2a;)	.
8GL	.	4d	.	4g	.	4b	mitdass
8FJ	.	.	.	.	.	.	.
4E	.	4e	.	4g	.	4cc	demwir
=4	=4	=4	=4	=4	=4	=4	=4
8DL	.	8fL	.	8aL	.	4dd	TodGnad'
8EJ	.	8eJ	.	8gJ	.	.	.
4F	.	4d	.	4f	.	4a	um-er-
8BBL	.	8dL	.	8fL	.	4g	-fan--lan-
8CJ	.	16cL	.	[8eJ	.	.	.
.	.	16B-JJ	.	.	.	.	.
4D	.	8AL	.	8eL]	.	4f	.
.	.	16BnL	.	16dL	.	.	.
.	.	16AJJ	.	16cJJ	.	.	.
=5	=5	=5	=5	=5	=5	=5	=5
1E;	.	1G#;	.	1B;	.	1e;	-gen;-gen?
=6:|!	=6:|!	=6:|!	=6:|!	=6:|!	=6:|!	=6:|!	=6:|!
*>B	*	*>B	*	*>B	*	*>B	*
4r	.	4r	.	4r	.	4r	.
8GL	.	4G	.	4B	.	4d	Das
8FJ	.	.	.	.	.	.	.
4E	.	4G	.	8cL	.	4e	bist
.	.	.	.	8BJ	.	.	.
4A	.	8cL	.	4c	.	4f	du
.	.	8AJ	.	.	.	.	.
=7	=7	=7	=7	=7	=7	=7	=7
8GL	.	4B	.	8dL	.	4.g	Herr
8GGJ	.	.	.	8eJ	.	.	.
8AAL	.	8cL	.	8eL	.	.	.
8BBJ	.	8GJ	.	8dJ	.	8f	al-
4C	.	[4G	.	8dL	.	4e	-lei-
.	.	.	.	[8cJ	.	.	.
4GG	.	8.GL]	.	8cL]	.	4d	.
.	.	.	.	8BJ	.	.	.
.	.	16FJk	.	.	.	.	.
=8	=8	=8	=8	=8	=8	=8	=8
2CC;	.	2E;	.	2G;	.	2c;	-ne.
4r	.	4r	.	4r	.	4r	.
8EL	.	4G	.	4G	.	4c	Uns
8FJ	.	.	.	.	.	.	.
=9	=9	=9	=9	=9	=9	=9	=9
8EL	.	4G	.	4c	.	4g	reu-
8DJ	.	.	.	.	.	.	.
8EL	.	4c	.	8cL	.	4g	-et
8CJ	.	.	.	8eJ	.	.	.
4F	.	8cL	.	4f	.	4a	uns'-
.	.	8dJ	.	.	.	.	.
4GG#	.	4d	.	8fL	.	4b	-re
.	.	.	.	8eJ	.	.	.
=10	=10	=10	=10	=10	=10	=10	=10
8AAL	Mis-	8cL	.	8eL	Mis-	4cc	Mis-
8BB	.	8dJ	.	16aL	.	.	.
.	.	.	.	16g#JJ	.	.	.
8C	.	[4e	.	[4a	.	4cc	-se-
8DJ	.	.	.	.	.	.	.
2E	-se-	8eL]	.	8aL]	.	(2b	-tat,
.	.	8BJ	.	16g#L	.	.	.
.	.	.	.	16f#JJ	.	.	.
.	.	8eL	.	4g#	-se-	.	.
.	.	8dJ	.	.	.	.	.
=11	=11	=11	=11	=11	=11	=11	=11
2AA;	-tat,	2c;	.	2e;	-tat,	2a;)	.
4E	.	4e	.	4g#	.	4b	die
8AL	.	4e	.	4a	.	4cc	dich,
8GJ	.	.	.	.	.	.	.
=12	=12	=12	=12	=12	=12	=12	=12
8FL	.	4d	.	8aL	.	4dd	Herr,
8EJ	.	.	.	8gJ	.	.	.
4D	.	8dL	.	4f	.	4a	er-
.	.	8cJ	.	.	.	.	.
8DL	.	4B-	.	4e	.	4g	-zÃ¼r-
8C#J	.	.	.	.	.	.	.
8DL	.	4A	.	8eL	.	4f	-net
8FJ	.	.	.	8dJ	.	.	.
=13	=13	=13	=13	=13	=13	=13	=13
2A;	.	2A;	.	2c#;	.	2e;	hat.
4r	.	4r	.	4r	.	4r	.
4FF	.	4c	.	8fL	.	4a	Hei-
.	.	.	.	8eJ	.	.	.
=14	=14	=14	=14	=14	=14	=14	=14
4GG	.	8cL	.	4d	.	4g	-li-
.	.	8BJ	.	.	.	.	.
4AA	.	4A	.	8dL	.	4e	-ger
.	.	.	.	8cJ	.	.	.
8DL	.	4A	.	4d	.	4f	Her-
8CJ	.	.	.	.	.	.	.
8BBL	.	8GL	.	4d	.	8.gL	-re
8GGJ	.	8BJ	.	.	.	.	.
.	.	.	.	.	.	16fJk	.
=15	=15	=15	=15	=15	=15	=15	=15
2AA;	.	2c;	.	2c;	.	2e;	Gott,
4r	.	4r	.	4r	.	4r	.
4AA	.	4c	.	4e	.	4a	hei-
=16	=16	=16	=16	=16	=16	=16	=16
4BB	.	4B	.	4d	.	4g	-li-
4C	.	4G	.	8dL	.	4e	-ger
.	.	.	.	16cL	.	.	.
.	.	.	.	16BJJ	.	.	.
4D	.	8FL	.	4A	.	4f	star-
.	.	8EJ	.	.	.	.	.
8BBL	.	8DL	.	8dL	.	4g	-ker
8GGJ	.	8GJ	.	8BJ	.	.	.
=17	=17	=17	=17	=17	=17	=17	=17
2C;	.	2G;	.	2c;	.	2e;	Gott,
8AAL	.	4c	.	4e	.	4a	hei-
8CJ	.	.	.	.	.	.	.
8EL	.	4B	.	4e	.	4g	-li-
8DJ	.	.	.	.	.	.	.
=18	=18	=18	=18	=18	=18	=18	=18
8CL	.	4c	.	4e	.	4a	-ger
8BBJ	.	.	.	.	.	.	.
8AAL	.	4B	.	4e	.	4b	barm-
8GG#J	.	.	.	.	.	.	.
4AA	.	4A	.	8eL	.	4cc	-herz'-
.	.	.	.	8fJ	.	.	.
4BB	.	4d	.	8gL	.	8bL	-ger
.	.	.	.	8fJ	.	8aJ	.
=19	=19	=19	=19	=19	=19	=19	=19
4C	.	8GL	.	8fL	.	4g	Hei-
.	.	16cL	.	[8eJ	.	.	.
.	.	16BJJ	.	.	.	.	.
4D	.	8AL	.	8eL]	.	4f	.
.	.	16BL	.	16dL	.	.	.
.	.	16AJJ	.	16cJJ	.	.	.
4E;	.	4G#;	.	4B;	.	4e;	-land,
4G	.	4Gn	.	4B-	.	4d	du
=20	=20	=20	=20	=20	=20	=20	=20
8FL	e-	4A	e-	4c	e-	2a	e-
8E	.	.	.	.	.	.	.
8D	.	4.d	.	4.f	.	.	.
8CJ	.	.	.	.	.	.	.
8BBL	-wi-	.	.	.	.	4g	-wi-
8GGJ	.	8B	-wi-	4e	-wi-	.	.
8AAL	-ger	8cL	-ger	.	.	4f	-ger
8BBJ	.	8GJ	.	8d	-ger	.	.
=21	=21	=21	=21	=21	=21	=21	=21
2C;	.	2G;	.	2c;	.	2e;	Gott,
8CL	.	4c	.	4e	.	4a	lass
8DJ	.	.	.	.	.	.	.
4E	.	8cL	.	8eL	.	4g	uns
.	.	8B-J	.	8dJ	.	.	.
=22	=22	=22	=22	=22	=22	=22	=22
8FL	.	8AL	.	4c	.	4a	nicht
8EJ	.	8GJ	.	.	.	.	.
4D	.	4F	.	4d	.	4b	ver-
4C	.	8GL	.	8e	.	8ccL	-sin-
.	.	8e	.	4g	.	8bJ	.
4D	.	8B	.	.	.	4a	.
.	.	16dL	.	8f#	.	.	.
.	.	16cJJ	.	.	.	.	.
=23	=23	=23	=23	=23	=23	=23	=23
2E;	.	2B;	.	2g;	.	2g;	-ken
8EL	.	4e	.	4g	.	4cc	in
8FJ	.	.	.	.	.	.	.
4G	.	8dL	.	4g	.	4b	der
.	.	8eJ	.	.	.	.	.
=24	=24	=24	=24	=24	=24	=24	=24
8DL	.	8fL	.	8aL	.	4dd	bit-
8EJ	.	8eJ	.	8gJ	.	.	.
4F	.	8dL	.	8fL	.	4a	-tern
.	.	8cJ	.	8eJ	.	.	.
8FL	.	8BL	.	8dL	.	4g	To-
8EJ	.	8c#J	.	8eJ	.	.	.
8DL	.	8dL	.	8AL	.	4f	-des-
8FJ	.	8AJ	.	8dJ	.	.	.
=25	=25	=25	=25	=25	=25	=25	=25
2A;	.	2A;	.	2c#;	.	2e;	-not.
4r	.	4r	.	4r	.	4r	.
8FL	.	8AL	.	4d	Ky-	4d	Ky-
8EJ	.	8GJ	.	.	.	.	.
=26	=26	=26	=26	=26	=26	=26	=26
4D	.	8FL	.	4d	-rie	2a	-rie
.	.	8EJ	.	.	.	.	.
8AAL	.	4F	.	8cL	e-	.	.
8BBJ	.	.	.	8dJ	.	.	.
8CL	.	8EL	.	[4e	-lei-	4g	e-
8C#J	.	[8A	.	.	.	.	.
4D	.	8A]	.	8eL]	.	4f	-lei-
.	.	16BL	.	16dL	.	.	.
.	.	16AJJ	.	16cJJ	.	.	.
=27	=27	=27	=27	=27	=27	=27	=27
1E;	.	1G#;	.	1B;	-son!	1e;	-son!
==|!	==|!	==|!	==|!	==|!	==|!	==|!	==|!
*-	*-	*-	*-	*-	*-	*-	*-
!!!RWG: Key is interpreted using the Humdrum key tool.
!!!URL-pdf: https://s9.imslp.org/files/imglnks/usimg/6/6b/IMSLP24489-PMLP09471-CCARH_Bach_Chorales.pdf#page=92 Musedata edition
!!!URL-pdf: https://s9.imslp.org/files/imglnks/usimg/7/7a/IMSLP04155-Bach_-_BGA_253-438.pdf#page=72 	Bach-Gesellschaft Ausgabe, Band 39 (pp.175-276) Leipzig: Breitkopf und Härtel, 1892. Plate B.W. XXXIX.
!!!END: 1994/07/18
!!!EMD: Converted from MuseData to Humdrum Dec 19, 2000, by Andreas Kornstaedt using muse2kern.
!!!EED: Craig Stuart Sapp
!!!EEV: 2024/03/31
!!!filter-keyboard: satb2gs
!!!title: @{OTL} (@{SCT})
